packages/core/src/svgs/clxy.svg

<svg width="24" height="24" viewBox="0 0 24 24" fill="none" xmlns="http://www.w3.org/2000/svg">
<g clip-path="url(#clip0_31_8421)">
<path d="M0 0H24V24H0V0Z" fill="#111820"/>
<path fill-rule="evenodd" clip-rule="evenodd" d="M13.5257 4.81301C13.5 4.87301 13.5386 4.94158 13.5986 5.01016C12.7114 4.8773 10.9971 4.85158 10.1529 5.52016C9.38143 6.12873 8.89286 7.33301 8.74715 7.86016C8.38286 7.9073 7.56429 8.04016 6.67286 8.44301C5.78143 8.84587 5.94429 9.60016 6.72429 9.60016C7.13143 9.60016 7.50429 9.48444 7.76572 9.36444C7.20675 9.90106 6.76216 10.5452 6.45871 11.2582C6.15526 11.9712 5.99922 12.7382 6 13.513C6 16.7016 8.58857 19.2859 11.7857 19.2859C12.8258 19.2859 13.8467 19.0051 14.7405 18.4731C15.6342 17.9412 16.3678 17.1778 16.8638 16.2635C17.3598 15.3492 17.5997 14.3181 17.5583 13.2788C17.5169 12.2395 17.1957 11.2306 16.6286 10.3587C16.9129 9.65655 17.0794 8.91227 17.1214 8.15587C17.07 6.35158 15.3343 5.51587 14.3614 5.19873C14.3914 5.18158 14.4171 5.15587 14.4214 5.13016C14.4643 4.9673 14.22 4.81301 14.0914 4.77444C13.9629 4.74016 13.59 4.64158 13.5257 4.8173V4.81301ZM10.8171 5.66587C9.9 6.05158 9.41143 7.20444 9.28286 7.73159C10.9157 7.37159 13.2043 8.54587 14.1429 9.18016C14.3529 8.61016 14.7643 7.34158 14.7643 6.85301C14.7643 6.36873 14.5629 5.95301 14.46 5.8073C13.6029 5.48158 11.9657 5.1773 10.8171 5.66587ZM15.1586 7.52158L14.5929 9.39016C14.9614 9.60016 15.7843 10.0416 16.1529 10.123C16.3029 9.64301 16.6114 8.60158 16.6114 8.30587C16.6114 7.12301 15.5786 6.38158 15.06 6.16301C15.3686 6.51016 15.2529 7.21301 15.1586 7.52158ZM6.91715 9.2873C7.56 9.2873 8.37 8.87158 8.69143 8.66158C9.40286 9.2873 11.3014 10.3544 13.1914 9.62587C11.6529 9.94301 10.2086 9.2873 9.54857 8.9273C8.91228 8.53565 8.15343 8.39365 7.41857 8.52873C6.57429 8.67873 6.11572 9.2873 6.91715 9.2873ZM7.85143 10.993C8.15143 10.5387 8.79429 10.543 9.18 10.933L11.0143 12.763C11.4043 13.1487 12.0386 13.1487 12.4286 12.763L14.25 10.9416C14.6357 10.5559 15.2786 10.5473 15.5786 11.0059C16.0286 11.7013 16.2828 12.5052 16.3144 13.333C16.346 14.1607 16.1538 14.9817 15.7581 15.7094C15.3625 16.4371 14.7779 17.0447 14.066 17.4682C13.3541 17.8917 12.5412 18.1155 11.7129 18.1159C10.8832 18.1154 10.0691 17.891 9.35649 17.4662C8.64386 17.0414 8.05915 16.4321 7.66409 15.7026C7.26904 14.973 7.07831 14.1504 7.11204 13.3214C7.14577 12.4925 7.4027 11.688 7.85572 10.993H7.85143ZM10.6671 13.4873L9.22286 12.0516C9.04715 11.8716 8.76429 11.8587 8.61429 12.0602C8.25133 12.5859 8.06382 13.2129 8.07857 13.8516C8.07857 14.7259 8.42143 15.2787 8.72143 15.5659C8.87572 15.7073 9.10715 15.673 9.25286 15.5316L10.6586 14.203C10.86 14.0102 10.8643 13.6887 10.6671 13.4873ZM14.1429 12.0516L12.6986 13.4873C12.5014 13.6887 12.5057 14.0102 12.7114 14.203L14.1129 15.5316C14.2629 15.673 14.49 15.7073 14.6443 15.5659C14.8632 15.3395 15.0333 15.0704 15.1439 14.7755C15.2545 14.4806 15.3032 14.1661 15.2871 13.8516C15.2871 13.0244 15.0129 12.4202 14.7514 12.0602C14.6057 11.8587 14.3229 11.8716 14.1429 12.0516ZM12.3214 7.56873C12.2844 7.56894 12.248 7.55958 12.2157 7.54156C12.1835 7.52354 12.1564 7.49746 12.1371 7.46587L12.0943 7.38016L12.0643 7.31158C12.0043 7.20444 11.9357 7.10587 11.8586 7.01587C11.6486 7.08444 11.4771 7.17444 11.3786 7.23444C11.2414 7.32873 11.13 7.2473 11.0657 7.15301C10.9971 7.05873 11.0786 6.75444 11.3229 6.81444C11.4171 6.84016 11.5457 6.84016 11.6786 6.82301C11.49 6.64301 11.2929 6.51444 11.1771 6.45016C11.0229 6.3773 11.04 6.24016 11.0914 6.1373C11.1343 6.03444 11.4429 5.95301 11.5114 6.19301C11.6051 6.41707 11.7454 6.61867 11.9229 6.78444C12.1333 6.74662 12.3361 6.67421 12.5229 6.57016C12.6514 6.49301 12.7629 6.43301 12.8271 6.47587C12.9257 6.54444 13.0029 6.66016 12.9214 6.80587C12.9026 6.83684 12.8762 6.86253 12.8447 6.88052C12.8132 6.89851 12.7777 6.90821 12.7414 6.90873H12.6429C12.6214 6.90016 12.6 6.90016 12.5743 6.90016C12.4114 6.89587 12.2486 6.9173 12.1029 6.95158C12.1757 7.01158 12.2529 7.05873 12.3257 7.10587C12.4543 7.18301 12.5614 7.2473 12.5571 7.32016C12.5486 7.44444 12.4886 7.56873 12.3214 7.56873Z" fill="#F5F6F8"/>
</g>
<defs>
<clipPath id="clip0_31_8421">
<rect width="24" height="24" fill="white"/>
</clipPath>
</defs>
</svg>

<svg xmlns="http://www.w3.org/2000/svg" width="24" height="24" fill="none" viewBox="0 0 24 24"><g clip-path="url(#a)"><path fill="#111820" d="M0 0h24v24H0z"/><path fill="#F5F6F8" fill-rule="evenodd" d="M13.526 4.813c-.026.06.013.129.073.197-.888-.133-2.602-.158-3.446.51-.772.609-1.26 1.813-1.406 2.34a7.4 7.4 0 0 0-2.074.583c-.892.403-.729 1.157.051 1.157.407 0 .78-.116 1.042-.236A5.74 5.74 0 0 0 6 13.513a5.78 5.78 0 0 0 5.786 5.773 5.777 5.777 0 0 0 4.843-8.927c.284-.702.45-1.447.492-2.203-.051-1.804-1.787-2.64-2.76-2.957.03-.017.056-.043.06-.069.043-.163-.201-.317-.33-.356-.128-.034-.501-.132-.565.043zm-2.709.853c-.917.386-1.406 1.538-1.534 2.066 1.633-.36 3.921.814 4.86 1.448.21-.57.621-1.838.621-2.327 0-.484-.201-.9-.304-1.046-.857-.325-2.494-.63-3.643-.141m4.342 1.856-.566 1.868c.368.21 1.191.652 1.56.733.15-.48.458-1.521.458-1.817 0-1.183-1.032-1.924-1.551-2.143.309.347.193 1.05.099 1.359M6.917 9.287c.643 0 1.453-.415 1.774-.625.712.625 2.61 1.692 4.5.964-1.538.317-2.982-.339-3.642-.699a3.02 3.02 0 0 0-2.13-.398c-.845.15-1.303.758-.502.758m.934 1.706c.3-.454.943-.45 1.329-.06l1.834 1.83c.39.386 1.025.386 1.415 0l1.821-1.821c.386-.386 1.029-.395 1.329.064a4.607 4.607 0 0 1-6.223 6.46 4.61 4.61 0 0 1-1.5-6.473zm2.816 2.494-1.444-1.435c-.176-.18-.459-.193-.609.008a3.03 3.03 0 0 0-.535 1.792c0 .874.342 1.427.642 1.714.155.141.386.107.532-.034l1.406-1.329a.503.503 0 0 0 .008-.716m3.476-1.435-1.444 1.435a.5.5 0 0 0 .012.716l1.402 1.329c.15.141.377.175.531.034a2.3 2.3 0 0 0 .643-1.714c0-.828-.274-1.432-.536-1.792-.145-.201-.428-.188-.608-.008M12.32 7.569a.21.21 0 0 1-.184-.103l-.043-.086-.03-.068a2 2 0 0 0-.205-.296c-.21.068-.382.158-.48.218-.138.095-.249.013-.313-.081-.069-.094.013-.399.257-.339a1 1 0 0 0 .356.009 2.6 2.6 0 0 0-.502-.373c-.154-.073-.137-.21-.086-.313.043-.103.352-.184.42.056.094.224.234.426.412.591.21-.037.413-.11.6-.214.128-.077.24-.137.304-.094.099.068.176.184.094.33a.21.21 0 0 1-.18.103h-.098C12.62 6.9 12.6 6.9 12.574 6.9a2 2 0 0 0-.471.052c.073.06.15.107.223.154.128.077.235.141.231.214-.008.124-.068.249-.236.249" clip-rule="evenodd"/></g><defs><clipPath id="a"><path fill="#fff" d="M0 0h24v24H0z"/></clipPath></defs></svg>
